svg/u262e.svg

<svg viewBox="0 0 128 128" xmlns="http://www.w3.org/2000/svg">
  <g>
    <path d="M116.46,3.96h-104c-4.42,0-8,3.58-8,8v104c0,4.42,3.58,8,8,8h104c4.42,0,8-3.58,8-8v-104 C124.46,7.54,120.88,3.96,116.46,3.96z" fill="#8E24AA"/>
    <path d="M110.16,3.96h-98.2c-4.13,0.03-7.47,3.37-7.5,7.5v97.9c-0.01,4.14,3.34,7.49,7.48,7.5 c0.01,0,0.01,0,0.02,0h98.1c4.14,0.01,7.49-3.34,7.5-7.48c0-0.01,0-0.01,0-0.02v-97.9c0.09-4.05-3.13-7.41-7.18-7.5 C110.31,3.96,110.23,3.96,110.16,3.96z" fill="#AB47BC"/>
    <path d="M40.16,12.86c0-2.3-1.6-3-10.8-2.7c-7.7,0.3-11.5,1.2-13.8,4 s-2.9,8.5-3,15.3c0,4.8,0,9.3,2.5,9.3c3.4,0,3.4-7.9,6.2-12.3C26.66,17.76,40.16,15.86,40.16,12.86z" opacity="0.3" fill="#FAFAFA" enable-background="new "/>
    <path d="M72.56,115.96" fill="#FFFFFF"/>
    <path d="M72.66,115.96" fill="#FFFFFF"/>
    <path d="M64.46,15.96c-26.51,0-48,21.49-48,48s21.49,48,48,48s48-21.49,48-48S90.97,15.96,64.46,15.96z M104.46,63.96c0,9.22-3.17,18.16-9,25.3l-27-27v-38.1C88.9,26.22,104.46,43.42,104.46,63.96z M60.46,103.76 c-7.81-0.79-15.21-3.85-21.3-8.8l21.3-21.3V103.76z M68.46,73.66l21.3,21.3c-6.09,4.95-13.49,8.01-21.3,8.8V73.66z M60.46,24.16 v38.1l-27,27c-13.97-17.11-11.43-42.31,5.68-56.28C45.23,28.01,52.64,24.95,60.46,24.16z" fill="#FFFFFF"/>
  </g>
</svg>

<svg viewBox="0 0 128 128" xmlns="http://www.w3.org/2000/svg">
  <defs/>
  <path d="M116.46,3.96 L12.46,3.96 C8.04,3.96 4.46,7.54 4.46,11.96 L4.46,115.96 C4.46,120.38 8.04,123.96 12.46,123.96 L116.46,123.96 C120.88,123.96 124.46,120.38 124.46,115.96 L124.46,11.96 C124.46,7.54 120.88,3.96 116.46,3.96 Z" fill="#8E24AA"/>
  <path d="M110.16,3.96 L11.96,3.96 C7.83,3.99 4.49,7.33 4.46,11.46 L4.46,109.36 C4.45,113.5 7.8,116.85 11.94,116.86 C11.95,116.86 11.95,116.86 11.96,116.86 L110.06,116.86 C114.2,116.87 117.55,113.52 117.56,109.38 C117.56,109.37 117.56,109.37 117.56,109.36 L117.56,11.46 C117.65,7.41 114.43,4.05 110.38,3.96 C110.31,3.96 110.23,3.96 110.16,3.96 Z" fill="#AB47BC"/>
  <path d="M40.16,12.86 C40.16,10.56 38.56,9.86 29.36,10.16 C21.66,10.46 17.86,11.36 15.56,14.16 C13.26,16.96 12.66,22.66 12.56,29.46 C12.56,34.26 12.56,38.76 15.06,38.76 C18.46,38.76 18.46,30.86 21.26,26.46 C26.66,17.76 40.16,15.86 40.16,12.86 Z" fill="#FAFAFA" opacity="0.3"/>
  <path d="M64.46,15.96 C37.95,15.96 16.46,37.45 16.46,63.96 C16.46,90.47 37.95,111.96 64.46,111.96 C90.97,111.96 112.46,90.47 112.46,63.96 C112.46,37.45 90.97,15.96 64.46,15.96 Z M104.46,63.96 C104.46,73.18 101.29,82.12 95.46,89.26 L68.46,62.26 L68.46,24.16 C88.9,26.22 104.46,43.42 104.46,63.96 Z M60.46,103.76 C52.65,102.97 45.25,99.91 39.16,94.96 L60.46,73.66 L60.46,103.76 Z M68.46,73.66 L89.76,94.96 C83.67,99.91 76.27,102.97 68.46,103.76 L68.46,73.66 Z M60.46,24.16 L60.46,62.26 L33.46,89.26 C19.49,72.15 22.03,46.95 39.14,32.98 C45.23,28.01 52.64,24.95 60.46,24.16 Z" fill="#FFFFFF"/>
</svg>
